;START_OF_HEADER
;HEADER_VERSION:0.1
;FLAVOR:Griffin
;GENERATOR.NAME:Cura_SteamEngine
;GENERATOR.VERSION:5.9.0
;GENERATOR.BUILD_DATE:2024-11-15
;TARGET_MACHINE.NAME:Ultimaker S5
;EXTRUDER_TRAIN.0.INITIAL_TEMPERATURE:205
;EXTRUDER_TRAIN.0.MATERIAL.VOLUME_USED:2190
;EXTRUDER_TRAIN.0.MATERIAL.GUID:44a029e6-e31b-4c9e-a12f-9282e29a92ff
;EXTRUDER_TRAIN.0.NOZZLE.DIAMETER:0.4
;EXTRUDER_TRAIN.0.NOZZLE.NAME:AA 0.4
;BUILD_PLATE.INITIAL_TEMPERATURE:60
;BUILD_VOLUME.TEMPERATURE:28
;PRINT.TIME:1321
;PRINT.GROUPS:1
;PRINT.SIZE.MIN.X:151.63
;PRINT.SIZE.MIN.Y:106.622
;PRINT.SIZE.MIN.Z:0.2
;PRINT.SIZE.MAX.X:330
;PRINT.SIZE.MAX.Y:237
;PRINT.SIZE.MAX.Z:40.6
;SLICE_UUID:132b63b1-6c51-440d-b8a3-f16be89ad3be
;END_OF_HEADER
;Generated with Cura_SteamEngine 5.9.0
T0
M82 ;absolute extrusion mode

G92 E0
M190 S60
M104 S205
M109 S205
G280 S1
G0 Z20.001
G1 F2700 E-6.5
;LAYER_COUNT:203
G0 F9000 X330 Y237
;LAYER:0
M106 S255
M204 S1500
M205 X30 Y30
G1 F600 Z2.2
G0 F9000 X167.169 Y133.222 Z2.2
;TYPE:SKIRT
G1 F600 Z0.2
G1 F2700 E0
G1 F1800 X166.269 Y133.333 E0.01137
G1 X163.665 Y133.377 E0.04403
G1 X160.879 Y132.746 E0.07985
G1 X160.063 Y132.454 E0.09072
G1 X158.024 Y131.428 E0.11935
G1 X156.79 Y130.572 E0.13818
G1 X154.996 Y128.973 E0.16832
G1 X153.533 Y126.893 E0.20021
G1 X152.454 Y124.666 E0.23124
G1 X151.987 Y123.133 E0.25134
G1 X151.63 Y120.615 E0.28323
G1 X151.63 Y118.617 E0.30828
G1 X152.298 Y115.723 E0.34553
G1 X152.54 Y115.063 E0.35435
G1 X153.688 Y112.827 E0.38587
G1 X154.419 Y111.798 E0.40169
G1 X156.052 Y109.963 E0.4325
G1 X158.694 Y108.188 E0.47241
G1 X159.826 Y107.652 E0.48812
G1 X162.83 Y106.777 E0.52736
G1 X163.73 Y106.666 E0.53873
G1 X166.328 Y106.622 E0.57131
G1 X168.42 Y107.058 E0.59811
G1 X170.64 Y107.858 E0.6277
G1 X172.037 Y108.602 E0.64755
G1 X173.046 Y109.296 E0.66291
G1 X175.028 Y111.046 E0.69607
G1 X176.683 Y113.48 E0.73298
G1 X177.612 Y115.507 E0.76094
G1 X178.027 Y116.909 E0.77927
G1 X178.369 Y119.384 E0.81061
G1 X178.369 Y121.382 E0.83566
G1 X177.701 Y124.276 E0.87291
G1 X177.459 Y124.936 E0.88172
G1 X176.311 Y127.172 E0.91324
G1 X175.58 Y128.201 E0.92907
G1 X173.947 Y130.036 E0.95988
G1 X171.305 Y131.811 E0.99979
G1 X170.173 Y132.347 E1.0155
G1 X167.169 Y133.222 E1.05474
G0 F9000 X167.119 Y132.825
G1 F1800 X166.262 Y132.933 E1.06557
G1 X163.705 Y132.976 E1.09764
G1 X161.014 Y132.369 E1.13223
G1 X160.198 Y132.077 E1.1431
G1 X158.204 Y131.071 E1.17111
G1 X157.056 Y130.273 E1.18864
G1 X155.297 Y128.705 E1.21819
G1 X153.893 Y126.718 E1.2487
G1 X152.837 Y124.549 E1.27895
G1 X152.37 Y123.016 E1.29905
G1 X152.03 Y120.615 E1.32946
G1 X152.03 Y118.664 E1.35393
G1 X152.674 Y115.861 E1.38999
G1 X152.916 Y115.201 E1.39881
G1 X154.015 Y113.058 E1.42901
G1 X154.718 Y112.064 E1.44428
G1 X156.316 Y110.268 E1.47442
G1 X158.865 Y108.55 E1.51297
G1 X159.997 Y108.014 E1.52868
G1 X162.88 Y107.174 E1.56634
G1 X163.737 Y107.066 E1.57717
G1 X166.288 Y107.023 E1.60916
G1 X168.338 Y107.45 E1.63542
G1 X170.452 Y108.211 E1.6636
G1 X171.81 Y108.932 E1.68288
G1 X172.819 Y109.626 E1.69824
G1 X174.726 Y111.314 E1.73018
G1 X176.32 Y113.647 E1.76561
G1 X177.228 Y115.621 E1.79286
G1 X177.643 Y117.023 E1.81119
G1 X177.969 Y119.384 E1.84108
G1 X177.969 Y121.335 E1.86555
G1 X177.325 Y124.138 E1.90161
G1 X177.083 Y124.798 E1.91043
G1 X175.984 Y126.941 E1.94063
G1 X175.281 Y127.935 E1.9559
G1 X173.683 Y129.731 E1.98605
G1 X171.134 Y131.449 E2.02459
G1 X170.002 Y131.985 E2.0403
G1 X167.119 Y132.825 E2.07796
G0 F9000 X167.068 Y132.428
G1 F1800 X166.255 Y132.533 E2.08824
G1 X163.745 Y132.575 E2.11972
G1 X161.149 Y131.992 E2.15308
G1 X160.333 Y131.7 E2.16395
G1 X158.385 Y130.714 E2.19133
G1 X157.322 Y129.974 E2.20757
G1 X155.595 Y128.435 E2.23658
G1 X154.252 Y126.542 E2.26569
G1 X153.22 Y124.432 E2.29514
G1 X152.753 Y122.899 E2.31524
G1 X152.43 Y120.615 E2.34417
G1 X152.43 Y118.709 E2.36807
G1 X153.05 Y115.999 E2.40293
G1 X153.292 Y115.339 E2.41175
G1 X154.342 Y113.288 E2.44064
G1 X155.017 Y112.33 E2.45534
G1 X156.583 Y110.57 E2.48488
G1 X159.036 Y108.912 E2.52201
G1 X160.168 Y108.376 E2.53772
G1 X162.931 Y107.571 E2.57381
G1 X163.744 Y107.466 E2.58409
G1 X166.248 Y107.424 E2.61549
G1 X168.256 Y107.842 E2.64121
G1 X170.265 Y108.565 E2.66799
G1 X171.583 Y109.262 E2.68669
G1 X172.592 Y109.956 E2.70204
G1 X174.423 Y111.579 E2.73273
G1 X175.957 Y113.815 E2.76673
G1 X176.844 Y115.735 E2.79326
G1 X177.259 Y117.137 E2.81159
G1 X177.569 Y119.384 E2.84004
G1 X177.569 Y121.29 E2.86394
G1 X176.949 Y124 E2.8988
G1 X176.707 Y124.66 E2.90762
G1 X175.657 Y126.711 E2.93651
G1 X174.982 Y127.669 E2.95121
G1 X173.416 Y129.429 E2.98075
G1 X170.963 Y131.087 E3.01788
G1 X169.831 Y131.623 E3.03359
G1 X167.068 Y132.428 E3.06968
G0 F9000 X167.015 Y132.031
G1 F1800 X166.248 Y132.133 E3.07938
G1 X163.784 Y132.174 E3.11028
G1 X161.284 Y131.615 E3.14241
G1 X160.468 Y131.323 E3.15328
G1 X158.566 Y130.357 E3.18003
G1 X157.588 Y129.675 E3.19498
G1 X155.895 Y128.166 E3.22342
G1 X154.611 Y126.365 E3.25116
G1 X153.603 Y124.315 E3.2798
G1 X153.136 Y122.782 E3.2999
G1 X152.83 Y120.615 E3.32735
G1 X152.83 Y118.754 E3.35068
G1 X153.426 Y116.137 E3.38434
G1 X153.668 Y115.477 E3.39316
G1 X154.67 Y113.518 E3.42075
G1 X155.316 Y112.596 E3.43487
G1 X156.849 Y110.874 E3.46378
G1 X159.207 Y109.274 E3.49952
G1 X160.339 Y108.738 E3.51522
G1 X162.984 Y107.968 E3.54977
G1 X163.751 Y107.866 E3.55947
G1 X166.209 Y107.825 E3.5903
G1 X168.175 Y108.234 E3.61548
G1 X170.079 Y108.919 E3.64086
G1 X171.356 Y109.592 E3.65896
G1 X172.365 Y110.286 E3.67432
G1 X174.121 Y111.847 E3.70378
G1 X175.627 Y114.041 E3.73715
G1 X176.46 Y115.849 E3.76212
G1 X176.875 Y117.251 E3.78045
G1 X177.169 Y119.384 E3.80745
G1 X177.169 Y121.245 E3.83079
G1 X176.573 Y123.862 E3.86445
G1 X176.331 Y124.522 E3.87326
G1 X175.329 Y126.481 E3.90086
G1 X174.683 Y127.403 E3.91498
G1 X173.15 Y129.125 E3.94389
G1 X170.792 Y130.725 E3.97962
G1 X169.66 Y131.261 E3.99533
G1 X167.015 Y132.031 E4.02988
G0 F9000 X166.962 Y131.634
G1 F1800 X166.195 Y131.736 E4.03958
G1 X163.823 Y131.773 E4.06933
G1 X161.419 Y131.238 E4.10021
G1 X160.603 Y130.946 E4.11108
G1 X158.794 Y130.028 E4.13652
G1 X157.854 Y129.376 E4.15087
G1 X156.195 Y127.897 E4.17874
G1 X154.937 Y126.133 E4.20591
G1 X153.986 Y124.198 E4.23295
G1 X153.519 Y122.665 E4.25304
G1 X153.23 Y120.615 E4.27901
G1 X153.23 Y118.798 E4.30179
G1 X153.802 Y116.275 E4.33423
G1 X154.044 Y115.615 E4.34305
G1 X155.026 Y113.701 E4.37003
G1 X155.615 Y112.862 E4.38288
G1 X157.115 Y111.177 E4.41117
G1 X159.378 Y109.636 E4.44551
G1 X160.51 Y109.1 E4.46121
G1 X163.037 Y108.365 E4.49421
G1 X163.804 Y108.263 E4.50392
G1 X166.17 Y108.226 E4.53359
G1 X168.094 Y108.626 E4.55824
G1 X169.893 Y109.273 E4.58221
G1 X171.129 Y109.922 E4.59972
G1 X172.138 Y110.616 E4.61507
G1 X173.82 Y112.115 E4.64333
G1 X175.264 Y114.209 E4.67523
G1 X176.076 Y115.963 E4.69946
G1 X176.491 Y117.365 E4.7178
G1 X176.769 Y119.384 E4.74336
G1 X176.769 Y121.201 E4.76614
G1 X176.197 Y123.724 E4.79859
G1 X175.955 Y124.384 E4.8074
G1 X174.973 Y126.298 E4.83438
G1 X174.384 Y127.137 E4.84723
G1 X172.884 Y128.822 E4.87552
G1 X170.621 Y130.363 E4.90986
G1 X169.489 Y130.899 E4.92556
G1 X166.962 Y131.634 E4.95857
G0 F9000 X166.909 Y131.237
G1 F1800 X166.142 Y131.339 E4.96827
G1 X163.865 Y131.372 E4.99683
G1 X161.554 Y130.861 E5.02651
G1 X160.738 Y130.569 E5.03738
G1 X159.022 Y129.699 E5.0615
G1 X158.082 Y129.047 E5.07585
G1 X156.495 Y127.628 E5.10255
G1 X155.263 Y125.901 E5.12915
G1 X154.369 Y124.081 E5.15458
G1 X153.902 Y122.548 E5.17467
G1 X153.63 Y120.615 E5.19915
G1 X153.63 Y118.842 E5.22139
G1 X154.178 Y116.413 E5.25261
G1 X154.42 Y115.753 E5.26143
G1 X155.382 Y113.884 E5.28779
G1 X155.914 Y113.128 E5.29938
G1 X157.382 Y111.479 E5.32707
G1 X159.549 Y109.998 E5.35998
G1 X160.681 Y109.462 E5.37569
G1 X163.09 Y108.762 E5.40715
G1 X163.857 Y108.66 E5.41685
G1 X166.131 Y108.627 E5.44537
G1 X168.013 Y109.018 E5.46948
G1 X169.708 Y109.628 E5.49207
G1 X170.902 Y110.252 E5.50896
G1 X171.911 Y110.946 E5.52432
G1 X173.517 Y112.381 E5.55133
G1 X174.901 Y114.378 E5.5818
G1 X175.692 Y116.077 E5.6053
G1 X176.107 Y117.479 E5.62364
G1 X176.369 Y119.384 E5.64775
G1 X176.369 Y121.157 E5.66998
G1 X175.821 Y123.586 E5.70121
G1 X175.579 Y124.246 E5.71003
G1 X174.617 Y126.115 E5.73639
G1 X174.085 Y126.871 E5.74798
G1 X172.617 Y128.52 E5.77567
G1 X170.45 Y130.001 E5.80858
G1 X169.318 Y130.537 E5.82429
G1 X166.909 Y131.237 E5.85575
G0 F9000 X166.856 Y130.84
G1 F1800 X166.089 Y130.942 E5.86545
G1 X163.907 Y130.971 E5.89281
G1 X161.689 Y130.484 E5.92129
G1 X160.873 Y130.192 E5.93216
G1 X159.25 Y129.37 E5.95498
G1 X158.31 Y128.718 E5.96932
G1 X156.795 Y127.359 E5.99484
G1 X155.589 Y125.669 E6.02088
G1 X154.752 Y123.964 E6.0447
G1 X154.285 Y122.431 E6.06479
G1 X154.03 Y120.615 E6.08779
G1 X154.03 Y118.886 E6.10947
G1 X154.554 Y116.551 E6.13948
G1 X154.796 Y115.891 E6.1483
G1 X155.71 Y114.113 E6.17337
G1 X156.213 Y113.394 E6.18437
G1 X157.649 Y111.781 E6.21146
G1 X159.72 Y110.36 E6.24295
G1 X160.852 Y109.824 E6.25866
G1 X163.143 Y109.159 E6.28858
G1 X163.91 Y109.057 E6.29828
G1 X166.092 Y109.028 E6.32564
G1 X167.932 Y109.41 E6.34921
G1 X169.523 Y109.983 E6.37042
G1 X170.675 Y110.582 E6.3867
G1 X171.684 Y111.276 E6.40206
G1 X173.215 Y112.647 E6.42783
G1 X174.572 Y114.606 E6.45771
G1 X175.308 Y116.191 E6.47963
G1 X175.723 Y117.593 E6.49796
G1 X175.969 Y119.384 E6.52063
G1 X175.969 Y121.113 E6.54232
G1 X175.445 Y123.448 E6.57233
G1 X175.203 Y124.108 E6.58114
G1 X174.289 Y125.886 E6.60621
G1 X173.786 Y126.605 E6.61722
G1 X172.35 Y128.218 E6.6443
G1 X170.279 Y129.639 E6.6758
G1 X169.147 Y130.175 E6.6915
G1 X166.856 Y130.84 E6.72142
G0 F9000 X166.803 Y130.443
G1 F1800 X166.036 Y130.545 E6.73112
G1 X163.948 Y130.57 E6.75731
G1 X161.824 Y130.107 E6.78457
G1 X161.008 Y129.815 E6.79544
G1 X159.477 Y129.041 E6.81695
G1 X158.577 Y128.42 E6.83066
G1 X157.095 Y127.091 E6.85563
G1 X155.915 Y125.437 E6.88111
G1 X155.135 Y123.847 E6.90331
G1 X154.668 Y122.314 E6.92341
G1 X154.43 Y120.615 E6.94493
G1 X154.43 Y118.928 E6.96608
G1 X154.93 Y116.689 E6.99485
G1 X155.172 Y116.029 E7.00367
G1 X156.039 Y114.341 E7.02746
G1 X156.512 Y113.66 E7.03786
G1 X157.917 Y112.082 E7.06436
G1 X159.891 Y110.722 E7.09442
G1 X161.023 Y110.186 E7.11012
G1 X163.196 Y109.556 E7.1385
G1 X163.963 Y109.454 E7.1482
G1 X166.052 Y109.429 E7.1744
G1 X167.851 Y109.802 E7.19744
G1 X169.338 Y110.338 E7.21726
G1 X170.49 Y110.937 E7.23354
G1 X171.456 Y111.605 E7.24827
G1 X172.912 Y112.913 E7.27282
G1 X174.243 Y114.834 E7.30212
G1 X174.924 Y116.305 E7.32245
G1 X175.339 Y117.707 E7.34079
G1 X175.569 Y119.384 E7.36201
G1 X175.569 Y121.071 E7.38317
G1 X175.069 Y123.31 E7.41194
G1 X174.827 Y123.97 E7.42075
G1 X173.96 Y125.658 E7.44455
G1 X173.487 Y126.339 E7.45495
G1 X172.082 Y127.917 E7.48145
G1 X170.108 Y129.277 E7.51151
G1 X168.976 Y129.813 E7.52721
G1 X166.803 Y130.443 E7.55559
G0 F9000 X166.75 Y130.046
G1 F1800 X165.983 Y130.148 E7.56529
G1 X163.989 Y130.169 E7.5903
G1 X161.959 Y129.73 E7.61634
G1 X161.143 Y129.438 E7.62721
G1 X159.703 Y128.711 E7.64744
G1 X158.844 Y128.122 E7.6605
G1 X157.394 Y126.822 E7.68492
G1 X156.274 Y125.26 E7.70902
G1 X155.518 Y123.73 E7.73043
G1 X155.051 Y122.197 E7.75052
G1 X154.83 Y120.615 E7.77055
G1 X154.83 Y118.975 E7.79112
G1 X155.306 Y116.827 E7.81871
G1 X155.548 Y116.167 E7.82753
G1 X156.368 Y114.569 E7.85005
G1 X156.841 Y113.888 E7.86045
G1 X158.181 Y112.386 E7.88569
G1 X160.062 Y111.084 E7.91438
G1 X161.194 Y110.548 E7.93008
G1 X163.249 Y109.953 E7.95691
G1 X164.016 Y109.851 E7.96662
G1 X166.012 Y109.83 E7.99165
G1 X167.77 Y110.194 E8.01416
G1 X169.153 Y110.693 E8.0326
G1 X170.305 Y111.292 E8.04888
G1 X171.189 Y111.903 E8.06236
G1 X172.612 Y113.181 E8.08634
G1 X173.88 Y115.003 E8.11418
G1 X174.54 Y116.419 E8.13377
G1 X174.955 Y117.821 E8.15211
G1 X175.169 Y119.384 E8.17189
G1 X175.169 Y121.024 E8.19246
G1 X174.693 Y123.172 E8.22005
G1 X174.451 Y123.832 E8.22886
G1 X173.631 Y125.43 E8.25139
G1 X173.158 Y126.111 E8.26178
G1 X171.818 Y127.613 E8.28703
G1 X169.937 Y128.915 E8.31571
G1 X168.805 Y129.451 E8.33142
G1 X166.75 Y130.046 E8.35825
G0 F9000 X166.697 Y129.649
G1 F1800 X165.93 Y129.751 E8.36795
G1 X164.029 Y129.769 E8.39179
G1 X162.094 Y129.353 E8.41661
G1 X161.278 Y129.061 E8.42748
G1 X159.929 Y128.381 E8.44643
G1 X159.07 Y127.792 E8.45949
G1 X157.694 Y126.555 E8.48269
G1 X156.632 Y125.082 E8.50546
G1 X155.901 Y123.613 E8.52604
G1 X155.434 Y122.08 E8.54614
G1 X155.23 Y120.615 E8.56469
G1 X155.23 Y119.02 E8.58469
G1 X155.682 Y116.965 E8.61107
G1 X155.924 Y116.305 E8.61989
G1 X156.697 Y114.797 E8.64114
G1 X157.17 Y114.116 E8.65154
G1 X158.45 Y112.686 E8.6756
G1 X160.233 Y111.446 E8.70284
G1 X161.365 Y110.91 E8.71855
G1 X163.302 Y110.35 E8.74383
G1 X164.069 Y110.248 E8.75354
G1 X165.972 Y110.23 E8.7774
G1 X167.689 Y110.586 E8.79939
G1 X168.968 Y111.048 E8.81644
G1 X170.12 Y111.647 E8.83273
G1 X170.922 Y112.201 E8.84495
G1 X172.31 Y113.448 E8.86835
G1 X173.518 Y115.173 E8.89476
G1 X174.156 Y116.533 E8.9136
G1 X174.571 Y117.935 E8.93193
G1 X174.769 Y119.384 E8.95027
G1 X174.769 Y120.979 E8.97027
G1 X174.317 Y123.034 E8.99666
G1 X174.075 Y123.694 E9.00548
G1 X173.302 Y125.202 E9.02673
G1 X172.829 Y125.883 E9.03712
G1 X171.549 Y127.313 E9.06119
G1 X169.766 Y128.553 E9.08843
G1 X168.634 Y129.089 E9.10413
G1 X166.697 Y129.649 E9.12942
G0 F9000 X166.644 Y129.252
G1 F1800 X165.877 Y129.354 E9.13912
G1 X164.069 Y129.369 E9.1618
G1 X162.229 Y128.976 E9.18539
G1 X161.413 Y128.684 E9.19626
G1 X160.154 Y128.05 E9.21394
G1 X159.337 Y127.494 E9.22633
G1 X157.994 Y126.287 E9.24897
G1 X156.99 Y124.903 E9.27041
G1 X156.284 Y123.496 E9.29016
G1 X155.817 Y121.963 E9.31025
G1 X155.63 Y120.615 E9.32732
G1 X155.63 Y119.064 E9.34677
G1 X156.058 Y117.103 E9.37194
G1 X156.3 Y116.443 E9.38075
G1 X157.026 Y115.025 E9.40073
G1 X157.499 Y114.344 E9.41113
G1 X158.717 Y112.987 E9.434
G1 X160.404 Y111.808 E9.45981
G1 X161.536 Y111.272 E9.47551
G1 X163.355 Y110.747 E9.49926
G1 X164.122 Y110.645 E9.50896
G1 X165.932 Y110.63 E9.53166
G1 X167.608 Y110.978 E9.55312
G1 X168.783 Y111.403 E9.56879
G1 X169.935 Y112.002 E9.58508
G1 X170.655 Y112.499 E9.59605
G1 X172.01 Y113.716 E9.61889
G1 X173.156 Y115.344 E9.64385
G1 X173.772 Y116.647 E9.66193
G1 X174.187 Y118.049 E9.68026
G1 X174.369 Y119.384 E9.69716
G1 X174.369 Y120.935 E9.71661
G1 X173.941 Y122.896 E9.74178
G1 X173.699 Y123.556 E9.7506
G1 X172.973 Y124.974 E9.77057
G1 X172.5 Y125.655 E9.78097
G1 X171.282 Y127.012 E9.80384
G1 X169.595 Y128.191 E9.82965
G1 X168.463 Y128.727 E9.84535
G1 X166.644 Y129.252 E9.8691
G0 F9000 X166.591 Y128.855
G1 F1800 X165.824 Y128.957 E9.8788
G1 X164.108 Y128.969 E9.90032
G1 X162.364 Y128.599 E9.92268
G1 X161.548 Y128.307 E9.93354
G1 X160.378 Y127.718 E9.94997
G1 X159.604 Y127.196 E9.96168
G1 X158.293 Y126.018 E9.98378
G1 X157.314 Y124.668 E10.00469
G1 X156.667 Y123.379 E10.02278
G1 X156.2 Y121.846 E10.04288
G1 X156.03 Y120.615 E10.05846
G1 X156.03 Y119.108 E10.07736
G1 X156.434 Y117.241 E10.10131
G1 X156.676 Y116.581 E10.11013
G1 X157.355 Y115.252 E10.12884
G1 X157.797 Y114.611 E10.13861
G1 X158.985 Y113.287 E10.16092
G1 X160.575 Y112.17 E10.18528
G1 X161.707 Y111.634 E10.20099
G1 X163.408 Y111.144 E10.22319
G1 X164.175 Y111.042 E10.23289
G1 X165.891 Y111.03 E10.25441
G1 X167.527 Y111.37 E10.27537
G1 X168.598 Y111.758 E10.28965
G1 X169.75 Y112.357 E10.30593
G1 X170.388 Y112.797 E10.31565
G1 X171.711 Y113.985 E10.33795
G1 X172.795 Y115.516 E10.36148
G1 X173.388 Y116.761 E10.37877
G1 X173.803 Y118.163 E10.3971
G1 X173.969 Y119.384 E10.41256
G1 X173.969 Y120.891 E10.43146
G1 X173.565 Y122.758 E10.45541
